src/assets/logs/surgical-sterilization-svgrepo-com.svg

<svg width="48px" height="48px" viewBox="0 0 48 48" fill="none" xmlns="http://www.w3.org/2000/svg">
<path fill-rule="evenodd" clip-rule="evenodd" d="M27.1847 36.6487C26.5567 36.2385 25.8062 36 25 36C22.7909 36 21 37.7908 21 40C21 42.2091 22.7909 44 25 44C27.2011 44 28.987 42.2221 28.9999 40.0239L29.2239 36H30.7761L31.0001 40.0232C31.0126 42.2217 32.7986 44 35 44C37.2091 44 39 42.2091 39 40C39 37.7908 37.2091 36 35 36C34.1938 36 33.4434 36.2385 32.8153 36.6487L30.9985 4.01025L30 4.06583L29.0016 4.01025L27.1847 36.6487ZM30.6648 34L30 22.058L29.3353 34H30.6648ZM31 17.9999C31 18.5522 30.5523 18.9999 30 18.9999C29.4477 18.9999 29 18.5522 29 17.9999C29 17.4476 29.4477 16.9999 30 16.9999C30.5523 16.9999 31 17.4476 31 17.9999ZM23 40C23 38.8954 23.8954 38 25 38C26.1046 38 27 38.8954 27 40C27 41.1045 26.1046 42 25 42C23.8954 42 23 41.1045 23 40ZM35 38C33.8954 38 33 38.8954 33 40C33 41.1045 33.8954 42 35 42C36.1046 42 37 41.1045 37 40C37 38.8954 36.1046 38 35 38Z" fill="#333333"/>
<path d="M16 14V4C16 4 12.5667 6.05996 12.0617 13.9968C11.9916 15.0992 12.8954 16 14 16C15.1046 16 16 15.1046 16 14Z" fill="#333333"/>
<path fill-rule="evenodd" clip-rule="evenodd" d="M13 18.5C13 17.6716 13.6716 17 14.5 17C15.3284 17 16 17.6716 16 18.5V19.2929L13 22.2929V18.5ZM13 23.7071V26.2929L16 23.2929V20.7071L13 23.7071ZM13 30.2929V27.7071L16 24.7071V27.2929L13 30.2929ZM13 31.7071V42.5C13 43.3284 13.6716 44 14.5 44C15.3284 44 16 43.3284 16 42.5V28.7071L13 31.7071Z" fill="#333333"/>
</svg>

<svg xmlns="http://www.w3.org/2000/svg" width="48" height="48" fill="none"><path fill="#333" fill-rule="evenodd" d="M27.185 36.649A4 4 0 1 0 29 40.024L29.224 36h1.552L31 40.023a4 4 0 1 0 1.815-3.374L31 4.01 30 4.066l-.998-.056-1.817 32.639ZM30.665 34 30 22.058 29.335 34h1.33ZM31 18a1 1 0 1 1-2 0 1 1 0 0 1 2 0Zm-8 22a2 2 0 1 1 4 0 2 2 0 0 1-4 0Zm12-2a2 2 0 1 0 0 4 2 2 0 0 0 0-4Z" clip-rule="evenodd"/><path fill="#333" d="M16 14V4s-3.433 2.06-3.938 9.997C11.992 15.099 12.895 16 14 16a2 2 0 0 0 2-2Z"/><path fill="#333" fill-rule="evenodd" d="M13 18.5a1.5 1.5 0 0 1 3 0v.793l-3 3V18.5Zm0 5.207v2.586l3-3v-2.586l-3 3Zm0 6.586v-2.586l3-3v2.586l-3 3Zm0 1.414V42.5a1.5 1.5 0 0 0 3 0V28.707l-3 3Z" clip-rule="evenodd"/></svg>
